assets/images/info-img3.svg

<svg width="64" height="64" viewBox="0 0 64 64" fill="none" xmlns="http://www.w3.org/2000/svg">
<path fill-rule="evenodd" clip-rule="evenodd" d="M14.2056 5.81451C14.1023 5.71122 13.9339 5.71122 13.8306 5.81451L5.81451 13.8306C5.71122 13.9339 5.71122 14.1023 5.81451 14.2056L7.60515 15.9962L9.71332 13.8881C10.0525 13.5489 10.6024 13.5489 10.9416 13.8881C11.2808 14.2272 11.2808 14.7772 10.9416 15.1163L8.83342 17.2245L10.8116 19.2027L14.523 15.4913C14.8622 15.1521 15.4121 15.1521 15.7513 15.4913C16.0905 15.8305 16.0905 16.3804 15.7513 16.7196L12.0399 20.431L14.0181 22.4092L16.1263 20.301C16.4655 19.9619 17.0154 19.9619 17.3546 20.301C17.6938 20.6402 17.6938 21.1901 17.3546 21.5293L15.2464 23.6375L17.2246 25.6157L20.936 21.9043C21.2752 21.5651 21.8251 21.5651 22.1643 21.9043C22.5035 22.2435 22.5035 22.7934 22.1643 23.1326L18.4529 26.844L20.4312 28.8223L22.5394 26.715C22.8787 26.3758 23.4286 26.376 23.7677 26.7152C24.1068 27.0545 24.1067 27.6044 23.7674 27.9435L21.6595 30.0506L23.6376 32.0287L27.3491 28.3182C27.6883 27.9791 28.2382 27.9792 28.5774 28.3184C28.9165 28.6576 28.9164 29.2075 28.5772 29.5467L24.8659 33.257L26.844 35.2351L28.9522 33.1277C29.2914 32.7886 29.8413 32.7887 30.1805 33.128C30.5196 33.4672 30.5194 34.0171 30.1802 34.3562L28.0722 36.4633L30.0509 38.442L33.7618 34.7311C34.1009 34.3919 34.6509 34.3919 34.99 34.7311C35.3292 35.0703 35.3292 35.6202 34.99 35.9594L31.2792 39.6702L33.2574 41.6485L35.365 39.5408C35.7042 39.2016 36.2541 39.2016 36.5933 39.5408C36.9325 39.88 36.9325 40.4299 36.5933 40.7691L34.4857 42.8767L36.4639 44.8549L40.1747 41.1441C40.5139 40.8049 41.0638 40.8049 41.403 41.1441C41.7422 41.4832 41.7422 42.0332 41.403 42.3723L37.6921 46.0832L39.6708 48.0619L41.7778 45.9539C42.1169 45.6147 42.6668 45.6146 43.0061 45.9537C43.3453 46.2928 43.3455 46.8427 43.0063 47.182L40.899 49.2901L42.8774 51.2685L46.5888 47.557C46.928 47.2179 47.4779 47.2179 47.8171 47.557C48.1562 47.8962 48.1562 48.4461 47.8171 48.7853L44.1056 52.4967L46.0838 54.4748L48.192 52.3666C48.5312 52.0274 49.0811 52.0274 49.4203 52.3666C49.7595 52.7057 49.7595 53.2557 49.4203 53.5948L47.312 55.7031L49.2902 57.6812L57.6812 49.2902L38.5647 30.1736L38.5505 30.1603L38.5376 30.1476C38.5287 30.1387 38.5201 30.1297 38.5117 30.1206L33.755 25.3639C33.7458 25.3555 33.7368 25.3468 33.7279 25.3379C33.719 25.3291 33.7104 25.3201 33.702 25.3109L14.2056 5.81451ZM42.2676 53.1152L48.6711 59.5187C48.6816 59.5294 48.6923 59.5397 48.7033 59.5498C48.8719 59.7046 49.0869 59.7807 49.301 59.778H58.9095C59.3892 59.778 59.778 59.3892 59.778 58.9095V49.301C59.7807 49.0869 59.7046 48.8719 59.5498 48.7033C59.5397 48.6923 59.5294 48.6816 59.5187 48.6711L40.3806 29.533L48.6078 21.3069L48.6186 21.2962C48.6901 21.2247 48.7465 21.1439 48.7878 21.0577L53.8868 11.1598C54.0597 10.824 53.9959 10.415 53.7288 10.1479C53.4617 9.88082 53.0527 9.81696 52.7169 9.98993L42.809 15.094C42.7671 15.1148 42.7264 15.1392 42.6876 15.1672C42.6496 15.1946 42.6138 15.2249 42.5806 15.2581L34.3427 23.495L15.4339 4.58623C14.6522 3.80459 13.384 3.80459 12.6024 4.58623L4.58623 12.6024C3.80459 13.384 3.80459 14.6522 4.58623 15.4339L6.98574 17.8334L6.99099 17.8387L6.99628 17.8439L10.1935 21.0411L10.1975 21.0451L10.2015 21.0491L13.3987 24.2463L13.404 24.2516L13.4093 24.257L16.6064 27.454L16.6105 27.4581L16.6146 27.4622L19.8168 30.6644L23.0234 33.871L23.4952 34.3428L12.9281 44.9099L12.9199 44.918L12.9118 44.9262L10.5151 47.3228C9.73348 48.1045 9.73348 49.3727 10.5151 50.1543L13.7216 53.3608C14.5032 54.1424 15.7714 54.1424 16.5531 53.3608L29.5331 40.3808L32.617 43.4646L32.6279 43.4763L32.6427 43.4914L32.653 43.5016L32.6614 43.5096L32.6695 43.5172L35.8236 46.6713C35.8319 46.6803 35.8404 46.6892 35.8492 46.6979C35.8579 46.7066 35.8668 46.7152 35.8758 46.7235L39.0513 49.8989L39.0569 49.9045L39.0623 49.9099L42.2589 53.1065L42.2632 53.1109L42.2676 53.1152ZM24.7234 35.5711L26.2296 37.0772L28.3048 39.1525L18.3437 49.1136L14.7623 45.5322L24.7234 35.5711ZM13.5341 46.7604L11.7434 48.5511C11.6401 48.6544 11.6401 48.8228 11.7434 48.9261L14.9498 52.1325C15.0531 52.2358 15.2215 52.2358 15.3248 52.1325L17.1155 50.3418L13.5341 46.7604ZM50.3695 14.1944L47.7772 19.2265L44.6502 16.0995L49.6822 13.5072L50.3695 14.1944ZM46.7761 20.682L43.1947 17.1006L35.5709 24.7233L39.1523 28.3047L46.7761 20.682Z" fill="#242343"/>
</svg>

<svg width="64" height="64" fill="none" xmlns="http://www.w3.org/2000/svg"><path fill-rule="evenodd" clip-rule="evenodd" d="M14.206 5.815a.266.266 0 0 0-.375 0L5.815 13.83a.266.266 0 0 0 0 .375l1.79 1.79 2.108-2.108a.868.868 0 1 1 1.229 1.228l-2.109 2.108 1.979 1.979 3.711-3.712a.869.869 0 1 1 1.228 1.229L12.04 20.43l1.978 1.978 2.108-2.108a.869.869 0 0 1 1.229 1.228l-2.109 2.108 1.979 1.979 3.711-3.712a.869.869 0 1 1 1.228 1.229l-3.711 3.711 1.978 1.978 2.108-2.107a.869.869 0 1 1 1.228 1.229L21.66 30.05l1.978 1.978 3.711-3.71a.869.869 0 0 1 1.228 1.228l-3.711 3.71 1.978 1.978 2.108-2.107a.869.869 0 0 1 1.228 1.228l-2.108 2.107 1.979 1.979 3.71-3.71a.868.868 0 1 1 1.229 1.227l-3.71 3.711 1.977 1.978 2.108-2.107a.869.869 0 1 1 1.228 1.228l-2.107 2.108 1.978 1.978 3.71-3.71a.869.869 0 0 1 1.229 1.227l-3.71 3.711 1.978 1.979 2.107-2.108a.869.869 0 0 1 1.228 1.228L40.9 49.29l1.978 1.979 3.712-3.712a.869.869 0 0 1 1.228 1.228l-3.711 3.712 1.978 1.978 2.108-2.108a.869.869 0 0 1 1.228 1.228l-2.108 2.108 1.978 1.978 8.391-8.39-19.116-19.117-.014-.014-.013-.012a.935.935 0 0 1-.026-.027l-4.757-4.757a.827.827 0 0 1-.053-.053L14.206 5.815Zm28.062 47.3 6.403 6.404.032.03c.169.156.384.232.598.229h9.608c.48 0 .869-.389.869-.868V49.3a.866.866 0 0 0-.26-.63L40.382 29.533l8.227-8.226.01-.01a.866.866 0 0 0 .17-.24l5.099-9.897a.869.869 0 0 0-1.17-1.17l-9.908 5.104a.864.864 0 0 0-.228.164l-8.238 8.237-18.91-18.909a2.003 2.003 0 0 0-2.83 0l-8.017 8.016a2.003 2.003 0 0 0 0 2.832l2.4 2.4.005.005.005.005 3.197 3.197.005.004.003.004 3.198 3.197.005.006.005.005 3.197 3.197.004.004.005.004 3.202 3.202 3.206 3.207.472.472L12.928 44.91l-.008.008-.008.008-2.397 2.397a2.003 2.003 0 0 0 0 2.831l3.207 3.207c.781.781 2.05.781 2.831 0l12.98-12.98 3.084 3.084.01.011.016.015.01.01.008.009.008.007 3.155 3.154a.8.8 0 0 0 .052.053l3.175 3.175.006.005.005.006 3.197 3.197.004.004.005.004ZM24.723 35.571l1.507 1.506 2.075 2.076-9.961 9.96-3.582-3.58 9.961-9.962Zm-11.189 11.19-1.79 1.79a.266.266 0 0 0 0 .375l3.206 3.206a.266.266 0 0 0 .375 0l1.79-1.79-3.58-3.582ZM50.37 14.193l-2.592 5.033-3.127-3.128 5.032-2.592.688.687Zm-3.593 6.488-3.581-3.581-7.624 7.622 3.581 3.582 7.624-7.623Z" fill="#242343"/></svg>
